images/food_icon_01.svg

<svg fill="none" height="40" viewBox="0 0 40 40" width="40" xmlns="http://www.w3.org/2000/svg"><g stroke="#8f00ff"><path d="m39 20c0 5.0391-2.0018 9.8718-5.565 13.435s-8.3959 5.565-13.435 5.565-9.8718-2.0018-13.43503-5.565c-3.56319-3.5632-5.56497-8.3959-5.56496-13.435 0-5.0391 2.00178-9.8718 5.56497-13.43503 3.56322-3.56319 8.39592-5.56497 13.43502-5.56497s9.8718 2.00178 13.435 5.56497c3.5632 3.56323 5.565 8.39593 5.565 13.43503z" stroke-linecap="round" stroke-linejoin="round" stroke-width="2"/><path d="m39 20c0 5.0391-2.0018 9.8718-5.565 13.435s-8.3959 5.565-13.435 5.565-9.8718-2.0018-13.43503-5.565c-3.56319-3.5632-5.56497-8.3959-5.56496-13.435 0-5.0391 2.00178-9.8718 5.56497-13.43503 3.56322-3.56319 8.39592-5.56497 13.43502-5.56497s9.8718 2.00178 13.435 5.56497c3.5632 3.56323 5.565 8.39593 5.565 13.43503z" stroke-linecap="round" stroke-linejoin="round" stroke-width="2"/><path d="m13.668 24.2227 6.3333 4.2222 6.3333-4.2222" stroke-width="1.5"/><path d="m13.668 17.8906 6.3333 4.2222 6.3333-4.2222" stroke-width="1.5"/><path d="m13.668 11.5566 6.3333 4.2223 6.3333-4.2223" stroke-width="1.5"/></g><path clip-rule="evenodd" d="m20.75 16.7903v-9.45436h-1.5v9.45356l.7507.5004zm0 1.2019-.472.3146-.2773.1849-.2774-.1849-.4733-.3155v5.1328l.7507.5005.7493-.4996zm-1.5 11.4646v-5.1308l.4733.3155.2774.1849.2773-.1849.472-.3146v5.1308l-.7493.4995zm0 1.2018v2.0107h1.5v-2.0098l-.472.3147-.2773.1849-.2774-.1849z" fill="#8f00ff" fill-rule="evenodd"/></svg>

<svg width="40" height="40" viewBox="0 0 40 40" fill="none" xmlns="http://www.w3.org/2000/svg">
<path d="M39 20C39 25.0391 36.9982 29.8718 33.435 33.435C29.8718 36.9982 25.0391 39 20 39C14.9609 39 10.1282 36.9982 6.56497 33.435C3.00178 29.8718 1 25.0391 1.00001 20C1.00001 14.9609 3.00179 10.1282 6.56498 6.56497C10.1282 3.00178 14.9609 1 20 1C25.0391 1 29.8718 3.00178 33.435 6.56497C36.9982 10.1282 39 14.9609 39 20L39 20Z" stroke="#8F00FF" stroke-width="2" stroke-linecap="round" stroke-linejoin="round"/>
<path d="M39 20C39 25.0391 36.9982 29.8718 33.435 33.435C29.8718 36.9982 25.0391 39 20 39C14.9609 39 10.1282 36.9982 6.56497 33.435C3.00178 29.8718 1 25.0391 1.00001 20C1.00001 14.9609 3.00179 10.1282 6.56498 6.56497C10.1282 3.00178 14.9609 1 20 1C25.0391 1 29.8718 3.00178 33.435 6.56497C36.9982 10.1282 39 14.9609 39 20L39 20Z" stroke="#8F00FF" stroke-width="2" stroke-linecap="round" stroke-linejoin="round"/>
<path d="M13.668 24.2227L20.0013 28.4449L26.3346 24.2227" stroke="#8F00FF" stroke-width="1.5"/>
<path d="M13.668 17.8906L20.0013 22.1128L26.3346 17.8906" stroke="#8F00FF" stroke-width="1.5"/>
<path d="M13.668 11.5566L20.0013 15.7789L26.3346 11.5566" stroke="#8F00FF" stroke-width="1.5"/>
<path fill-rule="evenodd" clip-rule="evenodd" d="M20.75 16.7903V7.33594H19.25V16.7895L20.0007 17.2899L20.75 16.7903ZM20.75 17.9922L20.278 18.3068L20.0007 18.4917L19.7233 18.3068L19.25 17.9913V23.1241L20.0007 23.6246L20.75 23.125V17.9922ZM19.25 29.4568V24.326L19.7233 24.6415L20.0007 24.8264L20.278 24.6415L20.75 24.3269V29.4577L20.0007 29.9572L19.25 29.4568ZM19.25 30.6586V32.6693H20.75V30.6595L20.278 30.9742L20.0007 31.1591L19.7233 30.9742L19.25 30.6586Z" fill="#8F00FF"/>
</svg>
